icons/group_discussion_meetingx3.svg

<svg width="48" height="48" viewBox="0 0 48 48" fill="none" xmlns="http://www.w3.org/2000/svg">
<path fill-rule="evenodd" clip-rule="evenodd" d="M33 18.5349C34.1632 18.8825 35 19 35 19V16H37C39.7614 16 42 13.7614 42 11C42 8.23858 39.7614 6 37 6H31.2361C28.3443 6 26 8.34429 26 11.2361C26 15.7542 30.3483 17.7424 33 18.5349ZM40 11C40 12.6569 38.6569 14 37 14H33V16.4351C32.4885 16.2598 31.9392 16.04 31.3966 15.7678C29.4143 14.7736 28 13.3608 28 11.2361C28 9.44886 29.4489 8 31.2361 8H37C38.6569 8 40 9.34315 40 11Z" fill="black"/>
<path fill-rule="evenodd" clip-rule="evenodd" d="M14.8167 17.9933C12.1286 17.8956 10 15.6881 10 12.9983C10 10.2378 12.2378 8 14.9983 8H18.1667C20.836 8 23 10.164 23 12.8333C23 16.8752 19.3696 18.7237 17 19.4998C15.852 19.8757 15 20 15 20V18L14.8167 17.9933ZM17 16.0714L14.8894 15.9947C13.2769 15.936 12 14.6118 12 12.9983C12 11.3424 13.3424 10 14.9983 10H18.1667C19.7315 10 21 11.2685 21 12.8333C21 14.7478 19.7833 16.0037 18.0761 16.8928C17.7154 17.0807 17.3509 17.2411 17 17.377V16.0714Z" fill="black"/>
<path fill-rule="evenodd" clip-rule="evenodd" d="M28 24C28 26.21 26.21 28 24 28C21.79 28 20 26.21 20 24C20 21.79 21.79 20 24 20C26.21 20 28 21.79 28 24ZM26 24C26 25.1054 25.1054 26 24 26C22.8946 26 22 25.1054 22 24C22 22.8946 22.8946 22 24 22C25.1054 22 26 22.8946 26 24Z" fill="black"/>
<path fill-rule="evenodd" clip-rule="evenodd" d="M19 26C19 28.21 17.21 30 15 30C12.79 30 11 28.21 11 26C11 23.79 12.79 22 15 22C17.21 22 19 23.79 19 26ZM17 26C17 27.1054 16.1054 28 15 28C13.8946 28 13 27.1054 13 26C13 24.8946 13.8946 24 15 24C16.1054 24 17 24.8946 17 26Z" fill="black"/>
<path fill-rule="evenodd" clip-rule="evenodd" d="M6 36.5455C6 33.5227 11.9962 32 15 32C15.585 32 16.2835 32.0578 17.0291 32.1731C18.3715 31.1903 20.8281 30 24.0001 30C27.1721 30 29.6286 31.1903 30.971 32.1731C31.7166 32.0578 32.415 32 33 32C36.0037 32 42 33.5227 42 36.5455V42H6V36.5455ZM21.6523 36.0229C22 36.347 22 36.5156 22 36.5455V40H8V36.5455C7.99999 36.5156 7.99996 36.347 8.34765 36.0229C8.71117 35.684 9.30978 35.3226 10.1238 34.9932C11.7559 34.3328 13.7508 34 15 34C16.2492 34 18.2441 34.3328 19.8762 34.9932C20.6902 35.3226 21.2888 35.684 21.6523 36.0229ZM28.1415 32.8557C27.0646 32.3864 25.6564 32 24.0001 32C22.3438 32 20.9355 32.3864 19.8586 32.8557C22.0742 33.6011 24 34.8324 24 36.5455C24 34.8324 25.9259 33.6011 28.1415 32.8557ZM40 36.5455C40 36.5156 40 36.347 39.6524 36.0229C39.2888 35.684 38.6902 35.3226 37.8762 34.9932C36.2441 34.3328 34.2492 34 33 34C31.7508 34 29.7559 34.3328 28.1238 34.9932C27.3098 35.3226 26.7112 35.684 26.3477 36.0229C26 36.347 26 36.5156 26 36.5455V40H40V36.5455Z" fill="black"/>
<path fill-rule="evenodd" clip-rule="evenodd" d="M33 30C35.21 30 37 28.21 37 26C37 23.79 35.21 22 33 22C30.79 22 29 23.79 29 26C29 28.21 30.79 30 33 30ZM33 28C34.1054 28 35 27.1054 35 26C35 24.8946 34.1054 24 33 24C31.8946 24 31 24.8946 31 26C31 27.1054 31.8946 28 33 28Z" fill="black"/>
</svg>

<svg
  xmlns="http://www.w3.org/2000/svg"
  width="24"
  height="24"
  viewBox="0 0 24 24"
  fill="none"
  stroke="currentColor"
  stroke-width="2"
  stroke-linecap="round"
  stroke-linejoin="round"
>
  <path
    fill-rule="evenodd"
    d="M33 18.535c1.163.348 2 .465 2 .465v-3h2a5 5 0 0 0 0-10h-5.764A5.236 5.236 0 0 0 26 11.236c0 4.518 4.348 6.506 7 7.299M40 11a3 3 0 0 1-3 3h-4v2.435a13 13 0 0 1-1.603-.667C29.414 14.774 28 13.36 28 11.236A3.236 3.236 0 0 1 31.236 8H37a3 3 0 0 1 3 3"
    clip-rule="evenodd"
  />
  <path
    fill-rule="evenodd"
    d="M14.817 17.993A4.998 4.998 0 0 1 14.998 8h3.169A4.833 4.833 0 0 1 23 12.833c0 4.042-3.63 5.89-6 6.667-1.148.376-2 .5-2 .5v-2zM17 16.071l-2.11-.076A2.998 2.998 0 0 1 14.997 10h3.169A2.833 2.833 0 0 1 21 12.833c0 1.915-1.217 3.17-2.924 4.06-.36.188-.725.348-1.076.484z"
    clip-rule="evenodd"
  />
  <path
    fill-rule="evenodd"
    d="M28 24c0 2.21-1.79 4-4 4s-4-1.79-4-4 1.79-4 4-4 4 1.79 4 4m-2 0a1.999 1.999 0 1 1-4 0 1.999 1.999 0 1 1 4 0"
    clip-rule="evenodd"
  />
  <path
    fill-rule="evenodd"
    d="M19 26c0 2.21-1.79 4-4 4s-4-1.79-4-4 1.79-4 4-4 4 1.79 4 4m-2 0a1.999 1.999 0 1 1-4 0 1.999 1.999 0 1 1 4 0"
    clip-rule="evenodd"
  />
  <path
    fill-rule="evenodd"
    d="M6 36.546C6 33.522 11.996 32 15 32c.585 0 1.284.058 2.03.173C18.371 31.19 20.827 30 24 30s5.629 1.19 6.971 2.173A13.6 13.6 0 0 1 33 32c3.004 0 9 1.523 9 4.545V42H6zm15.652-.523c.348.324.348.493.348.522V40H8v-3.455c0-.03 0-.198.348-.522.363-.339.962-.7 1.776-1.03C11.756 34.333 13.75 34 15 34s3.244.333 4.876.993c.814.33 1.413.691 1.776 1.03m6.49-3.167A10.4 10.4 0 0 0 24 32c-1.656 0-3.064.386-4.141.856C22.074 33.6 24 34.832 24 36.546c0-1.714 1.926-2.945 4.142-3.69M40 36.546c0-.03 0-.199-.348-.523-.363-.339-.962-.7-1.776-1.03C36.244 34.333 34.25 34 33 34s-3.244.333-4.876.993c-.814.33-1.413.691-1.776 1.03-.348.324-.348.493-.348.522V40h14z"
    clip-rule="evenodd"
  />
  <path
    fill-rule="evenodd"
    d="M33 30c2.21 0 4-1.79 4-4s-1.79-4-4-4-4 1.79-4 4 1.79 4 4 4m0-2a1.999 1.999 0 1 0 0-4 1.999 1.999 0 1 0 0 4"
    clip-rule="evenodd"
  />
</svg>
